X:1
T: Godfather Theme
Z: Devire
M: 4/4
L: 1/8
Q:1/4=81
K:Eb
z8|z8|z4 zG, CE|DC EC DC3/2A,B,/2|
G,4- G,G, CE|DC EC DC3/2G,_G,/2|F,4- F,F, A,=B,|D4- DF, A,=B,|
C4- CC, E,_B,|A,=G,3/2B,A,/2 A,G, G,=C|C,4- C,C C=B,|_B,4 D2 CA|
G,4- G,G, B,G,|F,4- F,F, A,_G,|=G,4- G,G, CE|DC EC DC3/2A,B,/2|
G,4- G,G, CE|DC EC DC3/2G,_G,/2|F,4 zF, A,=B,|D4- DF, A,=B|
C4- CC, E,_B,|A,=G, B,A, A,G,3/2G,=B,/2|C4- Cz3|z8|
z8|z8|z8|z8|
z8|z8|z4 zC C=B,|_B,4 D2 CA|
G,4- G,G, B,G,|F,4- F,F, A,_G,|=G,4- G,G, CE|DC EC DC3/2A,B,/A|
G,4- G,G, CE|DC EC DC3/2G,_G,/2|F,4 zF, A,=B,|D4- DF, A,=B|
C4- CC, E,_B,|A,=G, B,A, A,G, G,=B,|C8|
I got a lovely bunch of coconuts .. hehe not bad
